;PancakePainter v1.0.0 GCODE header start
;Originally generated @ Tue Oct 18 2016 14:26:07 GMT-0700 (PDT)
;Settings used to generate this file:
;----------------------------------------
;flattenResolution: 15
;lineEndPreShutoff: 20
;startWait: 450
;endWait: 250
;shadeChangeWait: 35
;fillSpacing: 15
;fillAngle: 23
;fillGroupThreshold: 27
;----------------------------------------
W1 X42 Y210 L485 T0 ;Define Workspace of this file
G21 ;Set units to MM
G1 F5600 ;Set Speed
M107 ;Pump off
G4 P1000 ;Pause for 1000 milliseconds
M84 ;Motors off
G28 X0 Y0 ;Home All Axis
;PancakePainter header complete
;Starting path #1/36, segments: 88, length: 1108, color #4
G00 X151.874 Y52.454
M106 ;Pump on
G4 P450 ;Pause for 450 milliseconds
G00 X147.844 Y53.893
G00 X144.102 Y54.757
G00 X139.208 Y53.893
G00 X135.466 Y52.454
G00 X133.451 Y51.878
G00 X131.148 Y51.878
G00 X127.693 Y55.333
G00 X126.83 Y58.499
G00 X127.118 Y63.393
G00 X128.557 Y66.271
G00 X130.86 Y68.862
G00 X136.042 Y73.18
G00 X139.784 Y74.619
G00 X143.814 Y75.483
G00 X148.708 Y78.649
G00 X151.298 Y82.104
G00 X152.738 Y86.134
G00 X153.025 Y91.603
G00 X154.177 Y97.36
G00 X155.328 Y102.83
G00 X157.919 Y109.738
G00 X161.374 Y114.632
G00 X164.828 Y118.662
G00 X166.555 Y121.829
G00 X169.146 Y126.147
G00 X170.297 Y129.889
G00 X171.449 Y134.782
G00 X171.161 Y139.1
G00 X170.009 Y143.418
G00 X170.009 Y144.57
G00 X168.57 Y148.888
G00 X173.464 Y148.024
G00 X177.494 Y147.161
G00 X182.1 Y144.858
G00 X188.433 Y141.979
G00 X191.887 Y139.388
G00 X193.902 Y136.798
G00 X199.372 Y131.04
G00 X204.265 Y124.995
G00 X208.007 Y118.662
G00 X211.174 Y110.602
G00 X212.613 Y105.708
G00 X213.477 Y100.527
G00 X214.34 Y96.497
G00 X214.628 Y92.467
G00 X215.492 Y88.437
G00 X216.643 Y85.27
G00 X218.946 Y81.24
G00 X222.113 Y77.786
G00 X225.567 Y74.331
G00 X229.309 Y71.741
G00 X232.764 Y70.301
G00 X236.218 Y67.423
G00 X238.809 Y64.544
G00 X239.96 Y61.378
G00 X239.673 Y56.772
G00 X237.657 Y53.317
G00 X235.067 Y50.727
G00 X232.764 Y49.863
G00 X229.309 Y50.439
G00 X224.991 Y51.878
G00 X221.537 Y53.03
G00 X217.507 Y53.893
G00 X214.053 Y53.317
G00 X211.462 Y52.742
G00 X208.583 Y51.015
G00 X206.856 Y47.56
G00 X205.705 Y43.818
G00 X204.841 Y40.076
G00 X204.265 Y35.47
G00 X203.114 Y32.304
G00 X200.811 Y29.137
G00 X196.781 Y25.683
G00 X192.751 Y23.092
G00 X189.584 Y21.653
G00 X184.691 Y20.789
G00 X179.221 Y21.077
G00 X175.767 Y21.365
G00 X171.161 Y22.804
G00 X167.419 Y25.107
G00 X164.54 Y28.273
G00 X162.237 Y30.864
G00 X160.222 Y34.894
G00 X157.919 Y40.364
;Nearing path end, moving to preshutoff position
G00 X155.958 Y46.246
M107 ;Pump off
G00 X155.904 Y46.409
G00 X154.753 Y49.575
G00 X152.738 Y52.454
G4 P250 ;Pause for 250 milliseconds
;Completed path #1/36 on color #4
;Starting path #2/36, segments: 12, length: 112, color #4
G00 X164.54 Y54.757
M106 ;Pump on
G4 P450 ;Pause for 450 milliseconds
G00 X168.282 Y55.908
G00 X171.161 Y55.045
G00 X172.888 Y52.742
G00 X173.176 Y50.151
G00 X172.025 Y46.985
G00 X169.434 Y46.409
G00 X165.979 Y46.697
G00 X163.676 Y49.575
G00 X164.54 Y54.757
;Nearing path end, moving to preshutoff position
G00 X166.212 Y54.239
M107 ;Pump off
G00 X166.386 Y54.185
G00 X169.071 Y47.859
G4 P250 ;Pause for 250 milliseconds
;Completed path #2/36 on color #4
;Starting path #3/36, segments: 2, length: 29, color #4
G00 X183.324 Y56.129
M106 ;Pump on
G4 P450 ;Pause for 450 milliseconds
;Nearing path end, moving to preshutoff position
G00 X182.105 Y59.002
M107 ;Pump off
G00 X181.336 Y60.812
G00 X179.348 Y65.495
G4 P250 ;Pause for 250 milliseconds
;Completed path #3/36 on color #4
;Starting path #4/36, segments: 10, length: 102, color #4
G00 X177.206 Y62.529
M106 ;Pump on
G4 P450 ;Pause for 450 milliseconds
G00 X178.645 Y66.271
G00 X182.388 Y67.998
G00 X185.554 Y65.983
G00 X186.418 Y62.241
G00 X186.418 Y59.363
G00 X184.691 Y55.62
G00 X181.812 Y55.045
;Nearing path end, moving to preshutoff position
G00 X178.682 Y55.827
M107 ;Pump off
G00 X178.358 Y55.908
G00 X177.206 Y62.529
G4 P250 ;Pause for 250 milliseconds
;Completed path #4/36 on color #4
;Starting path #5/36, segments: 10, length: 86, color #4
G00 X190.16 Y53.03
M106 ;Pump on
G4 P450 ;Pause for 450 milliseconds
G00 X193.039 Y56.484
G00 X195.629 Y56.196
G00 X198.508 Y54.469
G00 X199.372 Y51.59
G00 X198.796 Y48.136
G00 X196.493 Y46.409
G00 X193.614 Y46.697
;Nearing path end, moving to preshutoff position
G00 X193.116 Y47.084
M107 ;Pump off
G00 X191.024 Y48.712
G00 X190.16 Y53.03
G4 P250 ;Pause for 250 milliseconds
;Completed path #5/36 on color #4
;Starting path #6/36, segments: 2, length: 19, color #4
G00 X192.8 Y54.509
M106 ;Pump on
G4 P450 ;Pause for 450 milliseconds
;Very short path, early shutoff without move
M107 ;Pump off
G00 X194.127 Y51.383
G00 X195.454 Y48.257
G4 P250 ;Pause for 250 milliseconds
;Completed path #6/36 on color #4
;Switching Color to: Light
G4 P1000 ;Pause for 1000 milliseconds
G28 X0 Y0 ;Home All Axis
M84 ;Motors off
M142 ;Bottle change
G4 P35000 ;Pause for 35000 milliseconds
;Starting path #7/36, segments: 8, length: 348, color #1
G00 X129.078 Y65.366
M106 ;Pump on
G4 P450 ;Pause for 450 milliseconds
G00 X131.068 Y60.675
G00 X133.077 Y55.945
G00 X134.202 Y54.833
G00 X133.824 Y59.938
G00 X133.444 Y65.055
G00 X133.425 Y68.662
G00 X135.422 Y63.956
G00 X137.425 Y59.238
G00 X139.376 Y54.709
G00 X138.867 Y59.796
G00 X138.356 Y64.9
G00 X137.846 Y69.993
G00 X138.686 Y69.803
G00 X140.685 Y65.094
G00 X142.69 Y60.371
G00 X144.687 Y55.666
G00 X144.252 Y60.208
G00 X143.676 Y65.309
G00 X143.1 Y70.412
G00 X143.341 Y72.375
G00 X145.339 Y67.667
G00 X147.343 Y62.947
;Nearing path end, moving to preshutoff position
G00 X148.582 Y60.028
M107 ;Pump off
G00 X149.34 Y58.242
G00 X151.339 Y53.534
G4 P250 ;Pause for 250 milliseconds
;Completed path #7/36 on color #1
;Starting path #8/36, segments: 9, length: 301, color #1
G00 X164.252 Y52.166
M106 ;Pump on
G4 P450 ;Pause for 450 milliseconds
G00 X166.648 Y55.632
G00 X165.797 Y60.083
G00 X163.817 Y64.748
G00 X161.837 Y69.412
G00 X159.857 Y74.078
G00 X157.879 Y78.737
G00 X155.899 Y83.401
G00 X154.198 Y87.251
G00 X155.473 Y82.356
G00 X156.748 Y77.459
G00 X158.024 Y72.56
G00 X159.302 Y67.651
G00 X160.577 Y62.752
G00 X161.853 Y57.852
G00 X163.131 Y52.947
G00 X161.364 Y56.989
G00 X159.389 Y61.643
G00 X157.409 Y66.307
G00 X155.426 Y70.978
;Nearing path end, moving to preshutoff position
G00 X154.233 Y73.79
M107 ;Pump off
G00 X153.45 Y75.634
G00 X151.476 Y80.284
G4 P250 ;Pause for 250 milliseconds
;Completed path #8/36 on color #1
;Starting path #9/36, segments: 6, length: 429, color #1
G00 X147.367 Y76.427
M106 ;Pump on
G4 P450 ;Pause for 450 milliseconds
G00 X149.403 Y71.63
G00 X151.437 Y66.839
G00 X153.477 Y62.034
G00 X155.514 Y57.234
G00 X157.55 Y52.438
G00 X159.595 Y47.621
G00 X161.631 Y42.825
G00 X163.67 Y38.019
G00 X165.706 Y33.223
G00 X167.744 Y28.422
G00 X169.06 Y26.199
G00 X168.315 Y31.361
G00 X167.57 Y36.524
G00 X166.823 Y41.705
G00 X166.867 Y44.025
G00 X168.9 Y39.237
G00 X170.945 Y34.419
G00 X172.984 Y29.616
G00 X175.024 Y24.808
G00 X175.605 Y24.91
G00 X174.694 Y30.047
G00 X173.781 Y35.192
G00 X172.871 Y40.323
G00 X171.958 Y45.469
G00 X173.89 Y41.018
G00 X175.925 Y36.223
G00 X177.966 Y31.416
;Nearing path end, moving to preshutoff position
G00 X179.283 Y28.313
M107 ;Pump off
G00 X180.004 Y26.614
G00 X182.039 Y21.819
G4 P250 ;Pause for 250 milliseconds
;Completed path #9/36 on color #1
;Starting path #10/36, segments: 10, length: 773, color #1
G00 X203.42 Y39.137
M106 ;Pump on
G4 P450 ;Pause for 450 milliseconds
G00 X201.368 Y43.971
G00 X199.815 Y46.793
G00 X200.24 Y41.572
G00 X200.666 Y36.338
G00 X201.092 Y31.108
G00 X199.065 Y35.859
G00 X197.012 Y40.696
G00 X194.963 Y45.522
G00 X194.901 Y43.057
G00 X195.581 Y37.838
G00 X196.261 Y32.62
G00 X196.937 Y27.427
G00 X194.969 Y31.971
G00 X192.923 Y36.791
G00 X190.868 Y41.632
G00 X188.819 Y46.459
G00 X186.771 Y51.283
G00 X185.63 Y53.342
G00 X186.833 Y48.24
G00 X188.034 Y43.142
G00 X189.241 Y38.022
G00 X190.443 Y32.922
G00 X191.647 Y27.815
G00 X191.836 Y25.814
G00 X189.786 Y30.644
G00 X187.741 Y35.462
G00 X185.684 Y40.306
G00 X183.637 Y45.13
G00 X181.587 Y49.96
G00 X179.794 Y54.021
G00 X181.048 Y48.938
G00 X182.304 Y43.846
G00 X183.561 Y38.752
G00 X184.821 Y33.643
G00 X186.073 Y28.566
G00 X187.327 Y23.483
G00 X186.186 Y25.588
G00 X184.136 Y30.416
G00 X182.087 Y35.245
G00 X180.042 Y40.062
G00 X177.996 Y44.881
G00 X175.943 Y49.718
G00 X173.899 Y54.533
G00 X171.848 Y59.366
G00 X169.792 Y64.208
G00 X167.747 Y69.027
G00 X165.702 Y73.845
G00 X163.646 Y78.687
G00 X161.605 Y83.495
G00 X159.556 Y88.324
;Nearing path end, moving to preshutoff position
G00 X158.219 Y91.474
M107 ;Pump off
G00 X157.508 Y93.148
G00 X155.463 Y97.967
G4 P250 ;Pause for 250 milliseconds
;Completed path #10/36 on color #1
;Starting path #11/36, segments: 10, length: 1156, color #1
G00 X157.55 Y106.587
M106 ;Pump on
G4 P450 ;Pause for 450 milliseconds
G00 X159.585 Y101.792
G00 X161.631 Y96.972
G00 X163.676 Y92.154
G00 X165.718 Y87.343
G00 X167.768 Y82.514
G00 X169.811 Y77.702
G00 X171.852 Y72.894
G00 X173.896 Y68.078
G00 X175.938 Y63.267
G00 X174.745 Y67.315
G00 X173.204 Y72.314
G00 X171.668 Y77.301
G00 X170.126 Y82.304
G00 X168.585 Y87.304
G00 X167.045 Y92.303
G00 X165.503 Y97.307
G00 X163.963 Y102.304
G00 X162.422 Y107.307
G00 X160.952 Y112.11
G00 X162.99 Y107.308
G00 X165.036 Y102.488
G00 X167.081 Y97.67
G00 X169.123 Y92.859
G00 X171.173 Y88.03
G00 X173.215 Y83.219
G00 X175.258 Y78.407
G00 X177.303 Y73.589
G00 X179.344 Y68.781
G00 X178.461 Y71.987
G00 X176.924 Y76.996
G00 X175.389 Y81.995
G00 X173.853 Y86.997
G00 X172.318 Y91.999
G00 X170.782 Y97
G00 X169.245 Y102.006
G00 X167.711 Y107.006
G00 X166.175 Y112.009
G00 X164.76 Y116.674
G00 X166.798 Y111.874
G00 X168.846 Y107.049
G00 X170.886 Y102.243
G00 X172.931 Y97.426
G00 X174.974 Y92.612
G00 X177.022 Y87.788
G00 X179.065 Y82.975
G00 X181.106 Y78.167
G00 X183.156 Y73.337
G00 X185.194 Y68.536
G00 X187.228 Y63.745
G00 X189.283 Y58.903
G00 X190.405 Y56.504
G00 X188.726 Y61.458
G00 X187.053 Y66.394
G00 X185.372 Y71.353
G00 X183.691 Y76.311
G00 X182.014 Y81.259
G00 X180.337 Y86.207
G00 X178.651 Y91.181
G00 X176.974 Y96.129
G00 X175.297 Y101.076
G00 X173.614 Y106.041
G00 X171.933 Y111
G00 X170.26 Y115.937
G00 X168.582 Y120.886
G00 X169.417 Y119.242
G00 X171.463 Y114.421
G00 X173.504 Y109.613
G00 X175.547 Y104.801
G00 X177.588 Y99.992
G00 X179.633 Y95.174
G00 X181.676 Y90.36
G00 X183.726 Y85.531
G00 X185.765 Y80.727
G00 X187.813 Y75.904
G00 X189.857 Y71.087
G00 X191.896 Y66.285
;Nearing path end, moving to preshutoff position
G00 X193.223 Y63.159
M107 ;Pump off
G00 X193.939 Y61.471
G00 X195.979 Y56.666
G4 P250 ;Pause for 250 milliseconds
;Completed path #11/36 on color #1
;Starting path #12/36, segments: 11, length: 39, color #1
G00 X173.464 Y50.727
M106 ;Pump on
G4 P450 ;Pause for 450 milliseconds
G00 X170.897 Y47.065
;Nearing path end, moving to preshutoff position
G00 X169.613 Y47.09
M107 ;Pump off
G00 X166.464 Y47.151
G00 X163.964 Y50.151
G4 P250 ;Pause for 250 milliseconds
;Completed path #12/36 on color #1
;Starting path #13/36, segments: 3, length: 11, color #1
G00 X169.434 Y55.62
M106 ;Pump on
G4 P450 ;Pause for 450 milliseconds
;Very short path, early shutoff without move
M107 ;Pump off
G00 X172.312 Y53.317
G4 P250 ;Pause for 250 milliseconds
;Completed path #13/36 on color #1
;Starting path #14/36, segments: 2, length: 91, color #1
G00 X212.611 Y98.707
M106 ;Pump on
G4 P450 ;Pause for 450 milliseconds
G00 X210.82 Y102.925
G00 X209.023 Y107.16
G00 X207.227 Y111.39
G00 X205.428 Y115.628
G00 X203.633 Y119.858
;Nearing path end, moving to preshutoff position
G00 X202.801 Y121.818
M107 ;Pump off
G00 X201.835 Y124.093
G00 X200.044 Y128.311
G4 P250 ;Pause for 250 milliseconds
;Completed path #14/36 on color #1
;Starting path #15/36, segments: 14, length: 2686, color #1
G00 X170.998 Y129.054
M106 ;Pump on
G4 P450 ;Pause for 450 milliseconds
G00 X173.05 Y124.22
G00 X175.108 Y119.372
G00 X177.165 Y114.526
G00 X179.219 Y109.688
G00 X181.272 Y104.85
G00 X183.333 Y99.994
G00 X185.389 Y95.152
G00 X187.444 Y90.311
G00 X189.509 Y85.444
G00 X191.56 Y80.612
G00 X193.621 Y75.758
G00 X195.679 Y70.91
G00 X197.733 Y66.071
G00 X199.788 Y61.23
G00 X201.842 Y56.39
G00 X203.902 Y51.538
G00 X205.264 Y48.456
G00 X203.468 Y53.408
G00 X201.674 Y58.354
G00 X199.878 Y63.304
G00 X198.083 Y68.251
G00 X196.288 Y73.201
G00 X194.496 Y78.14
G00 X192.701 Y83.088
G00 X190.909 Y88.03
G00 X189.11 Y92.987
G00 X187.308 Y97.956
G00 X185.519 Y102.887
G00 X183.721 Y107.842
G00 X181.924 Y112.799
G00 X180.128 Y117.749
G00 X178.341 Y122.675
G00 X176.546 Y127.624
G00 X174.748 Y132.579
G00 X172.956 Y137.519
G00 X172.547 Y138.941
G00 X174.605 Y134.094
G00 X176.661 Y129.25
G00 X178.718 Y124.404
G00 X180.772 Y119.566
G00 X182.826 Y114.727
G00 X184.885 Y109.876
G00 X186.945 Y105.023
G00 X188.995 Y100.192
G00 X191.061 Y95.327
G00 X193.12 Y90.474
G00 X195.174 Y85.635
G00 X197.229 Y80.794
G00 X199.288 Y75.945
G00 X201.339 Y71.112
G00 X203.396 Y66.267
G00 X205.455 Y61.416
G00 X207.513 Y56.569
G00 X209.054 Y53.03
G00 X207.259 Y57.971
G00 X205.462 Y62.92
G00 X203.665 Y67.867
G00 X201.867 Y72.816
G00 X200.07 Y77.762
G00 X198.274 Y82.706
G00 X196.478 Y87.65
G00 X194.683 Y92.592
G00 X192.884 Y97.543
G00 X191.079 Y102.513
G00 X189.285 Y107.451
G00 X187.49 Y112.391
G00 X185.689 Y117.349
G00 X183.888 Y122.306
G00 X182.097 Y127.236
G00 X180.3 Y132.184
G00 X178.503 Y137.131
G00 X176.707 Y142.074
G00 X175.492 Y145.541
G00 X177.549 Y140.695
G00 X179.606 Y135.848
G00 X181.663 Y131.003
G00 X183.72 Y126.157
G00 X185.778 Y121.31
G00 X187.831 Y116.472
G00 X189.887 Y111.629
G00 X191.941 Y106.789
G00 X194 Y101.939
G00 X196.066 Y97.072
G00 X198.118 Y92.238
G00 X200.173 Y87.396
G00 X202.234 Y82.541
G00 X204.294 Y77.687
G00 X206.344 Y72.859
G00 X208.401 Y68.014
G00 X210.456 Y63.171
G00 X212.51 Y58.333
G00 X213.842 Y55.335
G00 X212.059 Y60.292
G00 X210.278 Y65.244
G00 X208.497 Y70.193
G00 X206.715 Y75.145
G00 X204.939 Y80.083
G00 X203.156 Y85.04
G00 X201.371 Y90
G00 X199.594 Y94.94
G00 X197.805 Y99.913
G00 X196.02 Y104.874
G00 X194.241 Y109.82
G00 X192.461 Y114.767
G00 X190.676 Y119.729
G00 X188.898 Y124.67
G00 X187.116 Y129.623
G00 X185.334 Y134.578
G00 X183.553 Y139.528
G00 X182.753 Y141.973
G00 X184.812 Y137.123
G00 X186.871 Y132.272
G00 X188.925 Y127.431
G00 X190.983 Y122.584
G00 X193.033 Y117.755
G00 X195.09 Y112.909
G00 X197.149 Y108.059
G00 X199.201 Y103.224
G00 X201.265 Y98.361
G00 X203.327 Y93.502
G00 X205.381 Y88.665
G00 X207.439 Y83.817
G00 X209.493 Y78.978
G00 X211.548 Y74.137
G00 X213.604 Y69.293
G00 X215.661 Y64.445
G00 X217.718 Y59.6
G00 X219.773 Y54.76
G00 X218.494 Y58.455
G00 X216.72 Y63.417
G00 X214.951 Y68.368
G00 X213.184 Y73.315
G00 X211.411 Y78.275
G00 X209.641 Y83.229
G00 X207.868 Y88.192
G00 X206.1 Y93.138
G00 X204.322 Y98.115
G00 X202.549 Y103.078
G00 X200.78 Y108.027
G00 X199.01 Y112.981
G00 X197.233 Y117.952
G00 X195.467 Y122.896
G00 X193.699 Y127.842
G00 X191.927 Y132.804
G00 X190.155 Y137.762
G00 X190.692 Y136.806
G00 X192.745 Y131.969
G00 X194.802 Y127.125
G00 X196.858 Y122.28
G00 X198.908 Y117.451
G00 X200.97 Y112.593
G00 X203.028 Y107.745
G00 X205.081 Y102.908
G00 X207.138 Y98.063
G00 X209.204 Y93.196
G00 X211.256 Y88.361
G00 X213.313 Y83.516
G00 X215.374 Y78.661
G00 X217.431 Y73.813
G00 X219.481 Y68.986
G00 X221.538 Y64.138
G00 X223.593 Y59.298
G00 X225.65 Y54.452
G00 X226.01 Y55.289
G00 X225.077 Y60.458
G00 X224.14 Y65.652
G00 X223.205 Y70.834
G00 X222.327 Y75.817
G00 X224.385 Y70.969
G00 X226.439 Y66.129
G00 X228.499 Y61.276
G00 X230.557 Y56.427
G00 X232.612 Y51.587
G00 X232.329 Y55.476
G00 X231.69 Y60.706
G00 X231.049 Y65.946
G00 X231.024 Y68.865
G00 X233.079 Y64.024
;Nearing path end, moving to preshutoff position
G00 X234.438 Y60.822
M107 ;Pump off
G00 X235.14 Y59.169
G00 X237.194 Y54.329
G4 P250 ;Pause for 250 milliseconds
;Completed path #15/36 on color #1
;Starting path #16/36, segments: 2, length: 1, color #1
G00 X171 Y142.586
M106 ;Pump on
G4 P450 ;Pause for 450 milliseconds
;Very short path, early shutoff without move
M107 ;Pump off
G00 X170.843 Y142.955
G4 P250 ;Pause for 250 milliseconds
;Completed path #16/36 on color #1
;PancakePainter Footer Start
G4 P1000 ;Pause for 1000 milliseconds
G28 X0 Y0 ;Home All Axis
M84 ;Motors off
;PancakePainter Footer Complete
